!!!OTL-incipit: SEHT JI HERRENS SEHT
!!!ARE: Europa, Mitteleuropa, Deutschland, Niedersachsen
!!!SCT: Z0138
!!!YEM: Copyright 1995, estate of Helmut Schaffrath.
**kern	**text
*ICvox	*
*M2/4	*
*k[b-]	*
*F:	*
=1	=1
!LO:TX:a:t=Niederſächſiſch.	!
{8f	Seht
8g	ji
8a	Her-
8b-/	-reus
=2	=2
4.cc}	ſeht!
{8a	hie
=3	=3
8b-/	ſett
8g	ick
8b-/	mi-
8a	-ne
=4	=4
2f;}	Föet,
=5	=5
{8b-/	will
8a	ji
8g	wee-
8f	-ten,
=6	=6
8b-/	will
8a	ji
8g	wee-
8f}	-ten,
=7	=7
{8b-/	wie
8a	die
8g	wak-
8f	-kern
=8	=8
8b-/	Mä-
8a	-kens
4g}	doet;
=9	=9
{8b-/	im-
8a	-mer
8g	geit
8f	ſe
=10	=10
8b-/	Müʒ-
8a	-ʒen
8g	upſet-
8f}	-ten,
=11	=11
{8b-/	Spee-
8a	-gel
8g	ky-
8f	-ken,
=12	=12
8b-/	im-
8a	-mer
8g	deit
8e	ſe
=13	=13
2f}	ſo.
==	==
!!!AGN: Erzaehlung, lustige Romanze
!!!ONB: ESAC (Essen Associative Code) Database: ZUCCAL
!!!AMT: simple duple
!!!AIN: vox
!!!EED: Helmut Schaffrath
!!!EEV: 1.0
!!!GTL: II. Erzahlungen, lustige Romanzen, Kinder-Lieder und episch-lyrische Volks-Lieder.
!!!URL-scan: https://www.digitale-sammlungen.de/de/view/bsb11160571?page=261
!!!ENC: Anna Maria Matuszewska
!!!EEV: 2025/01/28
*-	*-
